assets/symbols/mulberry/rocket_2.svg

<svg height="850.394" viewBox="0 0 850.394 850.394" width="850.394" xmlns="http://www.w3.org/2000/svg"><path d="m470.5 116.34c-5.37-4.2-13.07-6.82-21.62-6.82h-59.98c-9.01 0-17.08 2.91-22.47 7.51 10.94-14.61 45.99-61.16 50.63-63.75 5.01-2.8 35.08 40.62 53.44 63.06zm7.77 180.03v7.37c0 11.65-13.159 21.09-29.39 21.09h-59.98c-16.23 0-29.38-9.44-29.38-21.09v-7.37z" fill="#fbee34"/><path d="m429.61 475.22v76.9c0 4.49-5.07 8.13-11.331 8.13l-8.01-2.38c-2.05-1.47-3.31-3.51-3.31-5.75v-82.5h22.65v5.6zm18.05-27.13v21.53h-58.76v-21.53zm-47.43-122.16h36.11v121.72h-36.11z" fill="#f6cc4b"/><path d="m470.5 116.34c4.82 3.74 7.77 8.75 7.77 14.27v165.76h-118.75v-165.76c0-5.18 2.6-9.92 6.91-13.58 5.39-4.6 13.46-7.51 22.47-7.51h59.98c8.55 0 16.25 2.62 21.62 6.82z" fill="#0d72ba"/><g fill="none"><g stroke="#231f20" stroke-width="21"><path d="m478.27 296.37v7.37c0 11.65-13.159 21.09-29.39 21.09h-59.98c-16.23 0-29.38-9.44-29.38-21.09v-173.13c0-5.18 2.6-9.92 6.91-13.58 5.39-4.6 13.46-7.51 22.47-7.51h59.98c8.55 0 16.25 2.62 21.62 6.82 4.82 3.74 7.77 8.75 7.77 14.27z"/><path d="m363.19 121.38s1.2-1.62 3.24-4.35c10.94-14.61 45.99-61.16 50.63-63.75 5.01-2.8 35.08 40.62 53.44 63.06 1.22 1.49 2.39 2.88 3.49 4.16m-111.41 175.87h114.46m-76.81 29.56h36.11v121.72h-36.11zm6.73 143.69h-18.06v-21.53h58.76v21.53h-18.05zm22.65 5.6v76.9c0 4.49-5.07 8.13-11.331 8.13l-8.01-2.38c-2.05-1.47-3.31-3.51-3.31-5.75v-76.9m10.501 86.9v231.42"/></g><path d="m0 0h850.394v850.394h-850.394z"/></g></svg>

<svg xmlns="http://www.w3.org/2000/svg" width="850.394" height="850.394" viewBox="0 0 850.394 850.394" overflow="visible"><path d="M470.5 116.34c-5.37-4.2-13.07-6.82-21.62-6.82H388.9c-9.01 0-17.08 2.91-22.47 7.51 10.94-14.61 45.99-61.16 50.63-63.75 5.01-2.8 35.08 40.62 53.44 63.06zM478.27 296.37v7.37c0 11.65-13.159 21.09-29.39 21.09H388.9c-16.23 0-29.38-9.44-29.38-21.09v-7.37h118.75z" fill="#fbee34"/><path d="M429.61 475.22v76.9c0 4.49-5.07 8.13-11.331 8.13l-8.01-2.38c-2.05-1.47-3.31-3.51-3.31-5.75v-82.5h22.65v5.6zM447.66 448.09v21.53H388.9v-21.53zM400.23 325.93h36.11v121.72h-36.11z" fill="#f6cc4b"/><path d="M470.5 116.34c4.82 3.74 7.77 8.75 7.77 14.27v165.76H359.52V130.61c0-5.18 2.6-9.92 6.91-13.58 5.39-4.6 13.46-7.51 22.47-7.51h59.98c8.55 0 16.25 2.62 21.62 6.82z" fill="#0d72ba"/><g fill="none" stroke="#231f20" stroke-width="21"><path d="M478.27 296.37v7.37c0 11.65-13.159 21.09-29.39 21.09H388.9c-16.23 0-29.38-9.44-29.38-21.09V130.61c0-5.18 2.6-9.92 6.91-13.58 5.39-4.6 13.46-7.51 22.47-7.51h59.98c8.55 0 16.25 2.62 21.62 6.82 4.82 3.74 7.77 8.75 7.77 14.27v165.76z"/><path d="M363.19 121.38s1.2-1.62 3.24-4.35c10.94-14.61 45.99-61.16 50.63-63.75 5.01-2.8 35.08 40.62 53.44 63.06 1.22 1.49 2.39 2.88 3.49 4.16M362.58 296.37h114.46M400.23 325.93h36.11v121.72h-36.11zM406.96 469.62H388.9v-21.53h58.76v21.53h-18.05zM429.61 475.22v76.9c0 4.49-5.07 8.13-11.331 8.13l-8.01-2.38c-2.05-1.47-3.31-3.51-3.31-5.75v-76.9M417.46 562.12v231.42"/></g><path fill="none" d="M0 0h850.394v850.394H0z"/></svg>
